X:1
T:Prayer, Sweet Prayer
T:Prayer, Sweet Prayer
T:Samuel Monroe Vansant
T:Charles M. Lewis, 1897
T:Public Domain Courtesy of the Cyber Hymnal™
T:Public Domain Courtesy of the Cyber Hymnal™
C:Samuel Monroe Vansant
Z:Public Domain
Z:Courtesy of the Cyber Hymnal™
%%score ( 1 2 ) ( 3 4 )
L:1/8
Q:1/4=97
M:4/4
K:D
V:1 treble 
V:2 treble 
V:3 bass 
V:4 bass 
V:1
 (DE) | [DF]2 [DE][DF] [CG] [CG]2 [CG] | [CG]2 [Gc][GB] [FA]2 (D[CE]) | %3
w: 1.~How *|sweet is the bless- ing Our|hearts find in prayer! What *|
w: 2.~How *|blest the as- sur- ance, When|tri- als as- sail, That *|
w: 3.~The *|young and the ag- èd Re-|joice in its power, The *|
 [DF]2 [DF][DF] [DF]2 [B,E][B,D] | [CE]6 (AG) | [DF]2 [DF][DF] [FA] [FA]2 [FA] | %6
w: com- fort and peace it in-|spires! A *|ref- uge in sor- row, A|
w: prayer brings us strength to o’er-|come; That~our *|plead- ings for suc- cor Shall|
w: weak and the wea- ry at|heart; Thro’ *|life’s toil- some jour- ney, In|
 [FA]2 [^E^G][FA] [GB]2 (cd) | [FA]2 [DF][A,D] [A,C]2 [A,D][A,E] | [A,D]6 || %9
w: sol- ace in care, A *|shield in temp- ta- tion’s fierce|fires.|
w: ev- er pre- vail, Till~at *|length we shall reach that blest|home.|
w: death’s try- ing hour Its *|prom- is- es will not de-|part.|
[M:6/8]"^Refrain" [DF]6 | [FA]6 | [FA]2 [FB] [DF]2 [DG] | [CE]6 | [EG]6 | [GB]6 | %15
w: ||||||
w: Prayer,|prayer,|Balm for wound- ed|hearts;|Prayer,|prayer,|
w: ||||||
 [Ac]2 [Ae] [EG]2 [GB] | [FA]6 | [DF]6 | [FA]6 | [Fd]2 [FA] [DF]2 [Ad] | ([Ac]3 [GB]3) | %21
w: ||||||
w: Shield for Sa- tan’s|darts;|Prayer,|prayer,|Safe- guard all the|way, *|
w: ||||||
 [Ge]2 [Gd] [Gc]2 [GB] | [FA]2 [DF] [EG]2 [FA] | [GB]3 [Gc]3 | [Fd]3- [Fd]2 z |] %25
w: ||||
w: Till life’s rug- ged|path leads up To|realms of|day. *|
w: ||||
V:2
 D2 | x8 | x6 D x | x8 | x6 C2 | x8 | x6 =E2 | x8 | x6 ||[M:6/8] x6 | x6 | x6 | x6 | x6 | x6 | x6 | %16
 x6 | x6 | x6 | x6 | x6 | x6 | x6 | x6 | x6 |] %25
V:3
 (F,G,) | [D,A,]2 [D,G,][D,A,] [E,A,] [E,A,]2 [E,A,] | [A,,A,]2 [A,,A,][A,,A,] [D,A,]2 A,2 | %3
w: ~ *|~ ~ ~ ~ ~ ~|~ ~ ~ ~ ~|
 [D,A,]2 [D,A,][D,A,] [E,^G,]2 [E,G,][E,G,] | [A,,A,]6 (E,A,) | %5
w: ~ ~ ~ ~ ~ ~|~ ~ *|
 [D,A,]2 [D,A,][D,A,] [D,D] [D,D]2 [D,D] | [D,D]2 [D,D][D,D] [G,D]2 [^G,D]2 | %7
w: ~ ~ ~ ~ ~ ~|~ ~ ~ ~ ~|
 [A,D]2 [A,,A,][A,,F,] [A,,E,]2 [A,,F,][A,,G,] | [D,F,]6 ||[M:6/8] [D,A,]2 [D,A,] [D,A,]3 | %10
w: ~ ~ ~ ~ ~ ~|~|Prayer, sweet prayer,|
 [D,D]2 [D,D] [D,D]3 | [D,D]2 [D,D] [D,A,]2 [D,A,] | [A,,A,]2 [A,,A,] [A,,A,]3 | %13
w: prayer, sweet prayer|~ ~ ~ ~|Sa- tan’s darts;|
 [A,,A,]2 [A,,A,] [A,,A,]3 | [A,,A,]2 [A,,A,] [A,,A,]3 | A,2 [A,C] [A,C]2 [A,C] | %16
w: Prayer, sweet prayer,|prayer, sweet prayer|~ ~ ~ a-|
 [D,D]2 [D,D] [D,D]3 | [D,A,]2 [D,A,] [D,A,]3 | [D,D]2 [D,D] [D,D]3 | %19
w: long the way|||
 [D,A,]2 [D,D] [D,A,]2 [F,A,] | [G,D]2 [G,D] [G,D]3 | [G,B,]2 [G,B,] [G,E]2 [G,D] | %22
w: |||
 [A,D]2 A, A,2 A, | [A,,A,]3 [A,,A,]3 | [D,A,]3- [D,A,]2 z |] %25
w: |||
V:4
 D,2 | x8 | x6 (F,E,) | x8 | x6 A,,2 | x8 | x8 | x8 | x6 ||[M:6/8] x6 | x6 | x6 | x6 | x6 | x6 | %15
 A,2 x4 | x6 | x6 | x6 | x6 | x6 | x6 | x2 A, A,2 A, | x6 | x6 |] %25

